public/assets/routes_avatar/realEstateInputTaxCredit.svg

<?xml version="1.0" encoding="UTF-8"?>
<svg width="60px" height="60px" viewBox="0 0 60 60" version="1.1" xmlns="http://www.w3.org/2000/svg" xmlns:xlink="http://www.w3.org/1999/xlink">
    <!-- Generator: Sketch 49.3 (51167) - http://www.bohemiancoding.com/sketch -->
    <title>进项管理-不动产进项税额抵扣台账</title>
    <desc>Created with Sketch.</desc>
    <defs>
        <rect id="path-1" x="0" y="4" width="24" height="24" rx="2"></rect>
    </defs>
    <g id="icon" stroke="none" stroke-width="1" fill="none" fill-rule="evenodd">
        <g id="进项管理-不动产进项税额抵扣台账">
            <circle id="Oval-Copy" fill="#F69330" cx="30" cy="30" r="30"></circle>
            <g id="Group-35" transform="translate(15.000000, 16.000000)">
                <g id="Group-4">
                    <rect id="Rectangle-5" stroke="#FFFFFF" stroke-width="1.5" x="4.75" y="0.75" width="22.5" height="22.5" rx="2"></rect>
                    <g id="Rectangle-5-Copy">
                        <use fill="#F79E45" fill-rule="evenodd" xlink:href="#path-1"></use>
                        <rect stroke="#FFFFFF" stroke-width="1.5" x="0.75" y="4.75" width="22.5" height="22.5" rx="2"></rect>
                    </g>
                    <g id="Group" transform="translate(4.000000, 8.000000)" fill="#FFFFFF">
                        <rect id="Rectangle-3-Copy-3" x="0" y="0" width="15" height="1.5" rx="0.75"></rect>
                        <rect id="Rectangle-3-Copy-4" x="0" y="5" width="15" height="1.5" rx="0.75"></rect>
                        <rect id="Rectangle-3-Copy-5" x="0" y="10" width="10" height="1.5" rx="0.75"></rect>
                    </g>
                </g>
                <circle id="Oval-5" fill="#F79E45" cx="23.5" cy="21.5" r="7.5"></circle>
                <circle id="Oval-5" stroke="#FFFFFF" stroke-width="1.5" fill="#FFAA54" cx="24" cy="22" r="6"></circle>
                <path d="M23.5605,19.44025 C23.85375,19.7335 24,20.08675 24,20.50075 C24,20.91475 23.85375,21.268 23.5605,21.56125 C23.26725,21.8545 22.914,22.00075 22.5,22.00075 C22.086,22.00075 21.73275,21.8545 21.4395,21.56125 C21.14625,21.268 21,20.91475 21,20.50075 C21,20.08675 21.14625,19.7335 21.4395,19.44025 C21.73275,19.147 22.086,19.00075 22.5,19.00075 C22.914,19.00075 23.26725,19.147 23.5605,19.44025 Z M26.62425,19.2505 C26.62425,19.30225 26.607,19.3525 26.57325,19.399 L22.449,24.898 C22.3995,24.9655 22.3335,25 22.25025,25 L21.62475,25 C21.55725,25 21.498,24.97525 21.44925,24.92575 C21.39975,24.87625 21.375,24.817 21.375,24.75025 C21.375,24.6985 21.39225,24.64825 21.426,24.60175 L25.55025,19.102 C25.59975,19.0345 25.66575,19 25.749,19 L26.3745,19 C26.442,19 26.50125,19.02475 26.55,19.07425 C26.60025,19.12375 26.62425,19.183 26.62425,19.2505 Z M22.85175,20.8525 C22.95,20.75425 23.00025,20.6365 23.00025,20.50075 C23.00025,20.365 22.95075,20.24875 22.85175,20.149 C22.752,20.05075 22.63575,20.0005 22.5,20.0005 C22.36425,20.0005 22.248,20.05 22.14825,20.149 C22.0485,20.24875 21.99975,20.365 21.99975,20.50075 C21.99975,20.6365 22.04925,20.75275 22.14825,20.8525 C22.2465,20.95225 22.36425,21.001 22.5,21.001 C22.63575,21.00025 22.75275,20.95075 22.85175,20.8525 Z M26.5605,22.4395 C26.85375,22.73275 27,23.086 27,23.5 C27,23.914 26.85375,24.26725 26.5605,24.5605 C26.26725,24.85375 25.914,25 25.5,25 C25.086,25 24.73275,24.85375 24.4395,24.5605 C24.14625,24.26725 24,23.914 24,23.5 C24,23.086 24.14625,22.73275 24.4395,22.4395 C24.73275,22.14625 25.086,22 25.5,22 C25.914,22 26.26725,22.147 26.5605,22.4395 Z M25.85175,23.85175 C25.95,23.7535 26.00025,23.63575 26.00025,23.5 C26.00025,23.36425 25.95075,23.248 25.85175,23.14825 C25.7535,23.05 25.63575,22.99975 25.5,22.99975 C25.36425,22.99975 25.248,23.04925 25.14825,23.14825 C25.0485,23.24725 24.99975,23.36425 24.99975,23.5 C24.99975,23.63575 25.04925,23.75275 25.14825,23.85175 C25.2465,23.95 25.36425,24.00025 25.5,24.00025 C25.63575,24.00025 25.752,23.95075 25.85175,23.85175 Z" id="Shape" fill="#FFFFFF" fill-rule="nonzero"></path>
            </g>
        </g>
    </g>
</svg>

<svg width="60" height="60" xmlns="http://www.w3.org/2000/svg" xmlns:xlink="http://www.w3.org/1999/xlink"><defs><rect id="a" x="0" y="4" width="24" height="24" rx="2"/></defs><g fill="none" fill-rule="evenodd"><circle fill="#F69330" cx="30" cy="30" r="30"/><g transform="translate(15 16)"><rect stroke="#FFF" stroke-width="1.5" x="4.75" y=".75" width="22.5" height="22.5" rx="2"/><use fill="#F79E45" xlink:href="#a"/><rect stroke="#FFF" stroke-width="1.5" x=".75" y="4.75" width="22.5" height="22.5" rx="2"/><g transform="translate(4 8)" fill="#FFF"><rect width="15" height="1.5" rx=".75"/><rect y="5" width="15" height="1.5" rx=".75"/><rect y="10" width="10" height="1.5" rx=".75"/></g><circle fill="#F79E45" cx="23.5" cy="21.5" r="7.5"/><circle stroke="#FFF" stroke-width="1.5" fill="#FFAA54" cx="24" cy="22" r="6"/><path d="M23.56 19.44c.294.293.44.647.44 1.06 0 .415-.146.768-.44 1.061-.293.294-.646.44-1.06.44-.414 0-.767-.146-1.06-.44a1.445 1.445 0 0 1-.44-1.06c0-.414.146-.768.44-1.06.293-.294.646-.44 1.06-.44.414 0 .767.146 1.06.44zm3.064-.19a.25.25 0 0 1-.05.149l-4.125 5.499a.235.235 0 0 1-.199.102h-.625a.239.239 0 0 1-.176-.074.241.241 0 0 1-.023-.324l4.124-5.5A.235.235 0 0 1 25.75 19h.626c.067 0 .126.025.175.074.05.05.074.109.074.176zm-3.772 1.602a.482.482 0 0 0 .148-.351.482.482 0 0 0-.148-.352A.484.484 0 0 0 22.5 20a.482.482 0 0 0-.352.149c-.1.1-.148.216-.148.352 0 .136.05.252.148.351.099.1.216.149.352.149.136 0 .253-.05.352-.149zm3.709 1.587c.293.294.439.647.439 1.061 0 .414-.146.767-.44 1.06-.293.294-.646.44-1.06.44-.414 0-.767-.146-1.06-.44A1.445 1.445 0 0 1 24 23.5c0-.414.146-.767.44-1.06.293-.294.646-.44 1.06-.44.414 0 .767.147 1.06.44zm-.71 1.413a.482.482 0 0 0 .15-.352.482.482 0 0 0-.15-.352A.482.482 0 0 0 25.5 23a.482.482 0 0 0-.352.148.477.477 0 0 0-.148.352c0 .136.05.253.148.352A.482.482 0 0 0 25.5 24c.136 0 .252-.05.352-.148z" fill="#FFF" fill-rule="nonzero"/></g></g></svg>
